X:1
T:Title
%%score ( 1 2 ) { 3 | 4 }
L:1/8
Q:1/4=108
M:4/4
K:Ab
V:1 treble nm="Grand Piano, Soprano"
V:2 treble 
V:3 bass nm="Choir Pad, Standing on the Rock"
V:4 bass 
V:1
 [CE]2 [EA]2 [EG]2 [EA]2 | [EB]2 [Ec]2 [Fd]2 [Ec]2 | [EA]2 [FA][FA] [DF][DF] [FA]2 | [Ad]2 [Ac]6 | %4
w: By~Stephen~Jesse~Oslin * * *||||
 [Ac]2 [Ae]2 [Ae]2 [Ac]2 | _G2 [FA]2 [DF]2 [FA]2 | [Ad]2 [Ac][Ac] [GB]A [Ac]2 | [GB]2 A6 | %8
w: ||||
 [Ae]>[Ae] [Ac][Ac] [Ac][Ac] [Ac]2 | _G2 [FA][FA] [DF][DF] [FA]2 | [EA]2 [Ac][Ac] [Ac][Ac] [Ae]2 | %11
w: |||
 z2 z B- B3/2 z/ z2 | [Ac]2 [Ae]2 [Ae]2 [Ac]2 | _G2 [FA]2 [DF]2 [FA]2 | %14
w: |||
 [Ad]2 [Ac][Ac] [GB]A [GB]2 | [GB]2 AE FF E2- | E6 z2 |] %17
w: |||
V:2
 x8 | x8 | x8 | x8 | x8 | x8 | x8 | x8 | x8 | x8 | x8 | [Ac]2 .B2 AA G2 | x8 | x8 | x8 | x8 | x8 |] %17
V:3
 A,2 C2 B,2 A,2 | G,2 A,2 A,2 A,2 | C2 DD A,A, D2 | F2 E6 | E2 C2 C2 E2 | C2 D2 A,2 D2 | %6
 F2 EE DC E2 | B,2 C6 | C>C EE EE E2 | C2 DD A,A, D2 | C2 EE EE C2 | E2 EE =DD E2 | E2 C2 C2 E2 | %13
 C2 D2 A,2 D2 | F2 EE DC E2 | D2 CC DD C2- | C6 z2 |] %17
V:4
 A,,2 A,,2 B,,2 D,2 | E,2 z2 z4 | A,2 D,D, D,D, D,2 | D,2 A,6 | A,2 A,2 A,2 A,2 | A,2 D,2 D,2 D,2 | %6
 D,2 E,E, E,E, E,2 | E,2 A,,6 | A,>A, A,A, A,A, A,2 | A,2 D,D, D,D, D,2 | A,2 A,A, A,A, A,2 | %11
 A,2 A,G, F,F, E,2 | A,2 A,2 A,2 A,2 | A,2 D,2 D,2 D,2 | D,2 E,E, E,E, E,2 | E,2 A,,6- | %16
 A,,2 z2 z4 |] %17

